Gruvbox-Plus-Dark/actions/16/transform-scale-textbox-points.svg

<svg width="16" height="16" version="1.1" viewBox="0 0 16 16" xmlns="http://www.w3.org/2000/svg">
  <defs>
    <style type="text/css">.ColorScheme-Text { color:#ebdbb2; } .ColorScheme-Highlight { color:#458588; }</style>
  </defs>
  <path class="ColorScheme-Text" d="m1 1v4h4v-4zm10 0v4h4v-4zm-5 3v1h1v-1zm3 0v1h1v-1zm-5 2v1h1v-1zm7 0v1h1v-1zm-7 3v1h1v-1zm5 0v2h2v4h2v-4h2v-2zm-8 2v4h4v-4zm5 0v1h1v-1z" fill="currentColor"/>
</svg>

<svg xmlns="http://www.w3.org/2000/svg" width="16" height="16" viewBox="0 0 16 16">
 <defs>
  <style id="current-color-scheme" type="text/css">
   .ColorScheme-Text { color:#ebdbb2; } .ColorScheme-Highlight { color:#458588; }
  </style>
 </defs>
 <path style="fill:currentColor" class="ColorScheme-Text" d="M 1 1 L 1 5 L 2 5 L 5 5 L 5 2 L 5 1 L 1 1 z M 11 1 L 11 5 L 15 5 L 15 1 L 11 1 z M 6 4 L 6 5 L 7 5 L 7 4 L 6 4 z M 9 4 L 9 5 L 10 5 L 10 4 L 9 4 z M 4 6 L 4 7 L 5 7 L 5 6 L 4 6 z M 11 6 L 11 7 L 12 7 L 12 6 L 11 6 z M 4 9 L 4 10 L 5 10 L 5 9 L 4 9 z M 9 9 L 9 11 L 11 11 L 11 15 L 13 15 L 13 11 L 15 11 L 15 9 L 12 9 L 11 9 L 9 9 z M 1 11 L 1 15 L 5 15 L 5 11 L 1 11 z M 6 11 L 6 12 L 7 12 L 7 11 L 6 11 z"/>
</svg>
